X:29
T:Minnétt ur Andreas Hööks notbok
T:(SmM IX:29)
R:Menuett
B:Småländsk Musiktradition
S:Andreas Höök
O:Högabråten, Åker socken; Växjö, Småland
N:ca 1685
M:3/4
L:1/8
K:C
e2 e2 c2|f2gf e2|d2 d2 e2|dc de d2|e2 e2 c2|f2gf e2|d2 d3 c|1c4 z2:|2c4 c2||
|:c3 A d2|d2 e2 f2|f3 e f2|1f4 c2:|[2f4 a2 ]|:ag a_b g2|g4 f2|f3 e e2|e4 f2|
fg fe d2|d2 e2 f2|f3e f2|1f4 a2:|[2f4 z2]|

